svgs/sharp-light/pinata.svg

<svg xmlns="http://www.w3.org/2000/svg" viewBox="0 0 512 512"><!--! Font Awesome Pro 6.6.0 by @fontawesome - https://fontawesome.com License - https://fontawesome.com/license (Commercial License) Copyright 2024 Fonticons, Inc. --><path d="M160 0l16 0 64 0 16 0 0 16 0 208 240 0 16 0 0 16 0 256 0 16-16 0-96 0-16 0 0-16 0-80-160 0 0 80 0 16-16 0-96 0-16 0 0-16 0-270.1L8.8 182.3 0 177.9 0 168 0 80 0 64l16 0 144 0 0-48 0-16zm32 32l0 48 0 16-16 0L32 96l0 62.1 87.2 43.6 8.8 4.4 0 9.9 0 8.4 18.1-7.2 5.4-2.2 5.6 1.9L199.5 231l24.5-9.8L224 32l-32 0zM128 307.6l26.1-10.4 6.7-2.7 6.4 3.2 25.6 12.8 33.3-13.3 6.7-2.7 6.4 3.2 25.6 12.8 33.3-13.3 6.7-2.7 6.4 3.2 25.6 12.8 33.3-13.3 6.7-2.7 6.4 3.2 25.6 12.8 33.3-13.3 6.7-2.7 6.4 3.2L480 310.1l0-54.1-240 0-16 0 0-.4-18.1 7.2-5.4 2.2-5.6-1.9L152.5 249 128 258.8l0 48.7zm0 34.5l0 50.3 18.1-7.2 5.4-2.2 5.6 1.9L192 396.5l0-12.5 16 0 192 0 16 0 0 12.5 34.9-11.6 5.6-1.9 5.4 2.2 18.1 7.2 0-47.1-.7 .3-6.4-3.2-25.6-12.8-33.3 13.3-6.7 2.7-6.4-3.2-25.6-12.8-33.3 13.3-6.7 2.7-6.4-3.2-25.6-12.8-33.3 13.3-6.7 2.7-6.4-3.2-25.6-12.8-33.3 13.3-6.7 2.7-6.4-3.2-25.6-12.8L128 342zm352 84.8L455.5 417 416 430.2l0 49.8 64 0 0-53.2zm-288 3.4L152.5 417 128 426.8l0 53.2 64 0 0-49.8zM152 144a24 24 0 1 1 48 0 24 24 0 1 1 -48 0z"/></svg>

<svg xmlns="http://www.w3.org/2000/svg" viewBox="0 0 512 512"><!--! Font Awesome Pro 6.5.2 by @fontawesome - https://fontawesome.com License - https://fontawesome.com/license (Commercial License) Copyright 2024 Fonticons, Inc. --><path d="M160 0h16 64 16V16 224H496h16v16V496v16H496 400 384V496 416H224v80 16H208 112 96V496 225.9L8.8 182.3 0 177.9V168 80 64H16 160V16 0zm32 32V80 96H176 32v62.1l87.2 43.6 8.8 4.4V216v8.4l18.1-7.2 5.4-2.2 5.6 1.9L199.5 231l24.5-9.8V32H192zM128 307.6l26.1-10.4 6.7-2.7 6.4 3.2 25.6 12.8 33.3-13.3 6.7-2.7 6.4 3.2 25.6 12.8 33.3-13.3 6.7-2.7 6.4 3.2 25.6 12.8 33.3-13.3 6.7-2.7 6.4 3.2 25.6 12.8 33.3-13.3 6.7-2.7 6.4 3.2L480 310.1V256H240 224v-.4l-18.1 7.2-5.4 2.2-5.6-1.9L152.5 249 128 258.8v48.7zm0 34.5v50.3l18.1-7.2 5.4-2.2 5.6 1.9L192 396.5V384h16H400h16v12.5l34.9-11.6 5.6-1.9 5.4 2.2 18.1 7.2V345.2l-.7 .3-6.4-3.2-25.6-12.8-33.3 13.3-6.7 2.7-6.4-3.2-25.6-12.8-33.3 13.3-6.7 2.7-6.4-3.2-25.6-12.8-33.3 13.3-6.7 2.7-6.4-3.2-25.6-12.8-33.3 13.3-6.7 2.7-6.4-3.2-25.6-12.8L128 342zm352 84.8L455.5 417 416 430.2V480h64V426.8zm-288 3.4L152.5 417 128 426.8V480h64V430.2zM152 144a24 24 0 1 1 48 0 24 24 0 1 1 -48 0z"/></svg>
